X: 1
T: John Howett $1(R-83)
I: John Howett	R-83	D	reel
M: C|
R: reel
K: D
%%text $1Repeat part A 4 times
fg| "D"a2fd "A"g2ec| "D"d2AG FDDF| "Em"E2FG ABcd|[1,3 "A"eAfA g2 :|[2,4 "A"eABc "D"d2 :|
z2|:"D"defg aAfA| "G"gfed "A"ceAe| "D"defg aAfA| "G"gba^g "A"a4|
"D"abaf "G"gfed| "Em"efgA "A"GFED| "D"F2AF "G"G2BG| "A"Addc "D"d4 :|

